Numix/64/emotes/face-raspberry.svg

<?xml version="1.0" encoding="UTF-8" standalone="no"?>
<svg
   xmlns:dc="http://purl.org/dc/elements/1.1/"
   xmlns:cc="http://creativecommons.org/ns#"
   xmlns:rdf="http://www.w3.org/1999/02/22-rdf-syntax-ns#"
   xmlns:svg="http://www.w3.org/2000/svg"
   xmlns="http://www.w3.org/2000/svg"
   xmlns:sodipodi="http://sodipodi.sourceforge.net/DTD/sodipodi-0.dtd"
   xmlns:inkscape="http://www.inkscape.org/namespaces/inkscape"
   width="64px"
   height="64px"
   viewBox="0 0 48 48"
   version="1.1"
   id="svg494"
   inkscape:version="0.91 r"
   sodipodi:docname="face-raspberry.svg">
  <metadata
     id="metadata511">
    <rdf:RDF>
      <cc:Work
         rdf:about="">
        <dc:format>image/svg+xml</dc:format>
        <dc:type
           rdf:resource="http://purl.org/dc/dcmitype/StillImage" />
      </cc:Work>
    </rdf:RDF>
  </metadata>
  <defs
     id="defs509" />
  <sodipodi:namedview
     pagecolor="#ffffff"
     bordercolor="#666666"
     borderopacity="1"
     objecttolerance="10"
     gridtolerance="10"
     guidetolerance="10"
     inkscape:pageopacity="0"
     inkscape:pageshadow="2"
     inkscape:window-width="640"
     inkscape:window-height="480"
     id="namedview507" />
  <g
     id="surface1">
    <path
       style=" stroke:none;fill-rule:nonzero;fill:rgb(100%,85.490196%,36.862745%);fill-opacity:1;"
       d="M 42 24 C 42 32.5625 33.941406 39.5 24 39.5 C 14.058594 39.5 6 32.5625 6 24 C 6 15.441406 14.058594 8.5 24 8.5 C 33.941406 8.5 42 15.441406 42 24 Z M 42 24 "
       id="path497" />
    <path
       style=" stroke:none;fill-rule:nonzero;fill:rgb(39.607843%,39.607843%,39.607843%);fill-opacity:1;"
       d="M 18 18 C 16.621094 18 15.5 19.121094 15.5 20.5 C 15.5 20.753906 15.539062 21.003906 15.617188 21.246094 C 15.945312 20.207031 16.910156 19.5 18 19.5 C 19.09375 19.5 20.058594 20.210938 20.382812 21.253906 C 20.460938 21.011719 20.5 20.753906 20.5 20.5 C 20.5 19.121094 19.378906 18 18 18 Z M 18 18 "
       id="path499" />
    <path
       style=" stroke:none;fill-rule:nonzero;fill:rgb(39.607843%,39.607843%,39.607843%);fill-opacity:1;"
       d="M 32.5 20.5 C 32.5 21.878906 31.378906 23 30 23 C 28.621094 23 27.5 21.878906 27.5 20.5 C 27.5 19.121094 28.621094 18 30 18 C 31.378906 18 32.5 19.121094 32.5 20.5 Z M 32.5 20.5 "
       id="path501" />
    <path
       style=" stroke:none;fill-rule:nonzero;fill:rgb(39.607843%,39.607843%,39.607843%);fill-opacity:1;"
       d="M 19.5 30 L 28.5 30 C 28.777344 30 29 30.222656 29 30.5 C 29 30.777344 28.777344 31 28.5 31 L 19.5 31 C 19.222656 31 19 30.777344 19 30.5 C 19 30.222656 19.222656 30 19.5 30 Z M 19.5 30 "
       id="path503" />
    <path
       style=" stroke:none;fill-rule:nonzero;fill:rgb(94.117647%,35.294118%,35.294118%);fill-opacity:1;"
       d="M 26.5 30 C 26.5 31.785156 26.023438 33.4375 25.25 34.332031 C 24.476562 35.222656 23.523438 35.222656 22.75 34.332031 C 21.976562 33.4375 21.5 31.785156 21.5 30 "
       id="path505" />
  </g>
</svg>

<svg xmlns="http://www.w3.org/2000/svg" width="64" height="64" viewBox="0 0 48 48">
 <g>
  <path d="m 42 24 c 0 8.563 -8.06 15.5 -18 15.5 c -9.941 0 -18 -6.938 -18 -15.5 c 0 -8.559 8.06 -15.5 18 -15.5 c 9.941 0 18 6.941 18 15.5 m 0 0" style="fill:#ffd95d;fill-opacity:1;stroke:none;fill-rule:nonzero"/>
  <path d="m 18 18 c -1.379 0 -2.5 1.121 -2.5 2.5 c 0 0.254 0.039 0.504 0.117 0.746 c 0.328 -1.039 1.293 -1.746 2.383 -1.746 c 1.094 0 2.059 0.711 2.383 1.754 c 0.078 -0.242 0.117 -0.5 0.117 -0.754 c 0 -1.379 -1.121 -2.5 -2.5 -2.5 m 0 0" style="fill:#646464;fill-opacity:1;stroke:none;fill-rule:nonzero"/>
  <path d="m 32.5 20.5 c 0 1.379 -1.121 2.5 -2.5 2.5 c -1.379 0 -2.5 -1.121 -2.5 -2.5 c 0 -1.379 1.121 -2.5 2.5 -2.5 c 1.379 0 2.5 1.121 2.5 2.5 m 0 0" style="fill:#646464;fill-opacity:1;stroke:none;fill-rule:nonzero"/>
  <path d="m 19.5 30 l 9 0 c 0.277 0 0.5 0.223 0.5 0.5 c 0 0.277 -0.223 0.5 -0.5 0.5 l -9 0 c -0.277 0 -0.5 -0.223 -0.5 -0.5 c 0 -0.277 0.223 -0.5 0.5 -0.5 m 0 0" style="fill:#646464;fill-opacity:1;stroke:none;fill-rule:nonzero"/>
  <path d="m 26.5 30 c 0 1.785 -0.477 3.438 -1.25 4.332 c -0.773 0.891 -1.727 0.891 -2.5 0 c -0.773 -0.895 -1.25 -2.547 -1.25 -4.332" style="fill:#ef5a5a;fill-opacity:1;stroke:none;fill-rule:nonzero"/>
 </g>
</svg>
